X:236
T:Edradynate House
R:Reel
C:James Stewart Robertson
B:The Athole Collection
M:C|
L:1/8
K:D
A|F(AA)F BGAG|FD D/D/D d2dA|F(AA)F BG AF|E=C C/C/C G2GE|
F(AA)F BGAG|FD D/D/D d2de|fdec dAFD|D=C C/C/C G2G||
A|d2AF D/D/D AF|d2AF A2Ac|d2AF D/D/D AF|D=C C/C/C G2 GA|
D2AF D/D/D AF|d2AF A2Ae|fdec dAFD|E=C C/C/C G2G||

